icons/podimo.svg

<svg width="32" height="32" viewBox="0 0 32 32" fill="none" xmlns="http://www.w3.org/2000/svg">
<path d="M3.36627 28.6337C0.910867 26.1783 0 22.1783 0 16C0 9.82167 0.910867 5.82167 3.36627 3.36627C5.82167 0.910867 9.82167 0 16 0C22.1783 0 26.1783 0.910867 28.6337 3.36627C31.0891 5.82167 32 9.82167 32 16C32 22.1783 31.0891 26.1783 28.6337 28.6337C26.1783 31.0891 22.1783 32 16 32C9.82167 32 5.82167 31.0891 3.36627 28.6337Z" fill="#794CF8"/>
<path fill-rule="evenodd" clip-rule="evenodd" d="M17.2084 22.2019C16.8322 21.8963 16.8322 21.4019 16.8322 20.4131V7.23984C16.8322 6.25084 16.8322 5.75634 17.2084 5.45115C17.5847 5.14596 18.0081 5.23454 18.8544 5.41267C22.9601 6.27675 25.6767 9.71578 25.6767 13.8265C25.6767 17.9372 22.9601 21.3762 18.8544 22.2404C18.0081 22.4184 17.585 22.5075 17.2084 22.2019Z" fill="white"/>
<path fill-rule="evenodd" clip-rule="evenodd" d="M8.82172 18.3193C8.4259 18.0136 8.4259 17.5177 8.4259 16.5258V7.32991C8.4259 6.33812 8.4259 5.84222 8.82172 5.53649C9.21753 5.23076 9.627 5.33654 10.4456 5.54832C13.5138 6.34167 15.4797 8.89748 15.4797 11.9279C15.4797 14.9583 13.5138 17.514 10.4456 18.3075C9.627 18.5192 9.21764 18.625 8.82172 18.3193Z" fill="white"/>
<path d="M11.9527 26.75C13.9571 26.75 15.5821 25.125 15.5821 23.1206C15.5821 21.1161 13.9571 19.4911 11.9527 19.4911C9.94819 19.4911 8.32324 21.1161 8.32324 23.1206C8.32324 25.125 9.94819 26.75 11.9527 26.75Z" fill="white"/>
</svg>

<svg xmlns="http://www.w3.org/2000/svg" width="32" height="32" fill="none" viewBox="0 0 32 32">
  <path fill="#794CF8" d="M3.366 28.634C.911 26.178 0 22.178 0 16S.91 5.822 3.366 3.366C5.822.911 9.822 0 16 0s10.178.91 12.634 3.366C31.089 5.822 32 9.822 32 16s-.91 10.178-3.366 12.634C26.178 31.089 22.178 32 16 32s-10.178-.91-12.634-3.366Z"/>
  <path fill="#fff" fill-rule="evenodd" d="M17.208 22.202c-.376-.306-.376-.8-.376-1.789V7.24c0-.99 0-1.484.376-1.789.377-.305.8-.217 1.646-.038 4.106.864 6.823 4.303 6.823 8.413 0 4.111-2.717 7.55-6.823 8.414-.846.178-1.269.268-1.646-.038ZM8.822 18.32c-.396-.306-.396-.802-.396-1.794V7.33c0-.992 0-1.488.396-1.793.396-.306.805-.2 1.624.011 3.068.794 5.034 3.35 5.034 6.38s-1.966 5.586-5.034 6.38c-.819.211-1.228.317-1.624.011Z" clip-rule="evenodd"/>
  <path fill="#fff" d="M11.953 26.75a3.63 3.63 0 1 0 0-7.259 3.63 3.63 0 0 0 0 7.259Z"/>
</svg>
